-----BEGIN PGP SIGNATURE-----

iQIzBAABCgAdFiEEM9qMnq4OroxzFywQgi9t8JbQSHQFAmpzJ6EACgkQgi9t8JbQ
SHS0AxAArvkvP5Y5WgMwY1KaR5eVBkfQFnNwvK/sc/jqmONGQz7Il27sRvE63pRV
QHqinbU35QvlLcBgNx724fYtYccqo84XzxzdBtIcgTqskxqvif8+NPXpTbxukTZW
mXPmi7FgGd57FT0c03sLw1OTs+XdmsmJSCp6pPBMIIWmAMjGvinydewXYkJgafzj
5ZTFMO56Pnf1M8rO3C4GJRuyhs42zl50OPuX4yo2N1B4cH6XJKSxBHIUG6FsDGMT
Mw3cdBKJWxipzWKoZmTqE+7i/aScy1XkaNEv+z+MmlVynWb2xu8U1WxRJ8M7ahbj
0kC42Dt9GHriWqafNoyRz7oQcmrhtoP+1Pu38aqS8xtbVC+Dy+11mzr70pysfFet
uAoP44lAhTzoG54R6RBgiW9rdCxdUCtSw9iWfyIBXO7s9vqlXs788exQLbj8XRy9
bWiDqsWznoiqhOrh072w67HsXsan7TVBgv4VbAbODUxRktO3sXE3YUWGs9hCyD6P
i7d0D28N+vQYu8uxymafYPVJeN5AzxRCDD2VmK5mGJAmhwVDeVFLC9N/N2840pIt
6oDZEsRKBJwo6rUTEDf3EC0sW1vt8PC4XvMYqnLnfJaYjLuZl2JSgz5/lubplTSL
4QajtPLeSdIntLQg38TvwIaiULlWwopQN7bmqOT6rkwOaBG1KFY=
=Q2jb
-----END PGP SIGNATURE-----
